assets/Japanese dolls/Flat/japanese_dolls_flat.svg

<svg width="32" height="32" viewBox="0 0 32 32" fill="none" xmlns="http://www.w3.org/2000/svg">
<path d="M22.83 13.77H21.7C18.85 13.77 16.54 16.08 16.54 18.93V26.69C16.54 27.27 17.01 27.75 17.6 27.75L22.265 28.5L26.93 27.75C27.51 27.75 27.99 27.28 27.99 26.69V18.93C27.99 16.08 25.68 13.77 22.83 13.77Z" fill="#F92F60"/>
<path d="M10.3 13.77H9.17001C6.32001 13.77 4.01001 16.08 4.01001 18.93V26.69C4.01001 27.27 4.48001 27.75 5.07001 27.75L9.73501 28.5L14.4 27.75C14.98 27.75 15.46 27.28 15.46 26.69V18.93C15.46 16.08 13.15 13.77 10.3 13.77Z" fill="#00A6ED"/>
<path d="M29 27.75H3C2.45 27.75 2 28.2 2 28.75C2 29.3 2.45 29.75 3 29.75H29C29.55 29.75 30 29.3 30 28.75C30 28.2 29.55 27.75 29 27.75Z" fill="#B76A1E"/>
<path d="M22.53 12.05C22.4419 12.0632 22.3518 12.07 22.26 12.07C22.1683 12.07 22.0781 12.0632 21.99 12.05H21.7399C21.74 12.0567 21.74 12.0633 21.74 12.07C21.74 13.0697 20.9296 13.88 19.93 13.88C18.9304 13.88 18.12 13.0697 18.12 12.07C18.12 11.0704 18.9304 10.26 19.93 10.26C20.0258 10.26 20.1199 10.2675 20.2117 10.2818C20.2904 10.1902 20.3751 10.1039 20.4653 10.0236C20.5811 9.13567 21.3405 8.45001 22.26 8.45001C23.1799 8.45001 23.9395 9.13626 24.0549 10.0247C24.144 10.1044 24.2279 10.1899 24.3059 10.2806C24.3953 10.2671 24.4868 10.26 24.58 10.26C25.5796 10.26 26.39 11.0704 26.39 12.07C26.39 13.0697 25.5796 13.88 24.58 13.88C23.5804 13.88 22.77 13.0697 22.77 12.07C22.77 12.0633 22.77 12.0567 22.7701 12.05H22.53Z" fill="#321B41"/>
<path d="M22.0031 7.76932C21.8221 7.81141 21.6578 7.897 21.5218 8.01447L21.24 7.34C21.02 6.81 20.31 6.73 19.96 7.18C19.62 7.64 19.9 8.29 20.46 8.36L21.2113 8.44839C21.1589 8.57866 21.13 8.72096 21.13 8.87C21.13 9.10594 21.2023 9.325 21.326 9.50621C21.6171 9.39872 21.9318 9.34 22.26 9.34C22.5882 9.34 22.9029 9.39871 23.194 9.5063C23.3177 9.32507 23.39 9.10598 23.39 8.87C23.39 8.72053 23.361 8.57785 23.3083 8.44726L24.05 8.36C24.61 8.29 24.89 7.64 24.55 7.18C24.2 6.73 23.49 6.81 23.27 7.34L22.9909 8.00817C22.8563 7.89393 22.6947 7.81065 22.5169 7.76932L22.9 7.11C23.18 6.62 22.83 6 22.26 6C21.69 6 21.33 6.62 21.62 7.11L22.0031 7.76932Z" fill="#FCD53F"/>
<path d="M22.74 23.53L25.33 20.88C26.57 19.61 25.67 17.47 23.89 17.47H20.57C18.79 17.47 17.89 19.61 19.13 20.88L21.72 23.53C22.01 23.81 22.47 23.81 22.74 23.53Z" fill="#FCD53F"/>
<path d="M9.22999 17.51H10.23C10.47 17.51 10.66 17.72 10.64 17.96L10.14 23.49C10.12 23.7 9.93999 23.86 9.72999 23.86C9.51999 23.86 9.33999 23.7 9.31999 23.49L8.81999 17.96C8.79999 17.72 8.98999 17.51 9.22999 17.51Z" fill="#FCD53F"/>
<path d="M7.5 8.41C7.5 8.13386 7.72386 7.91 8 7.91H11.5938C11.8699 7.91 12.0938 8.13386 12.0938 8.41C12.0938 8.68615 11.8699 8.91 11.5938 8.91H8C7.72386 8.91 7.5 8.68615 7.5 8.41Z" fill="#D3D3D3"/>
<path d="M7.03003 12.04C7.03003 10.55 8.24003 9.34 9.73003 9.34C11.23 9.34 12.44 10.55 12.43 12.04V13.81C12.43 15.3 11.22 16.51 9.73003 16.51C8.24003 16.51 7.03003 15.3 7.03003 13.81V12.04Z" fill="#FFF3D7"/>
<path d="M22.25 16.51C20.76 16.51 19.55 15.3 19.55 13.81H19.54V12.05H24.95V13.81C24.95 15.3 23.74 16.51 22.25 16.51Z" fill="#FFF3D7"/>
<path d="M12.44 12.05V11.98C12.43 11.74 12.4 11.51 12.33 11.29V11.27C12.07 10.42 11.41 9.73999 10.56 9.46999C10.49 9.43999 10.43 9.42999 10.37 9.40999V7.01999C10.37 6.78999 10.26 6.58999 10.1 6.45999C9.89003 6.28999 9.58003 6.28999 9.37003 6.45999C9.20003 6.58999 9.09003 6.79999 9.09003 7.01999V9.40999C9.03003 9.42999 8.97003 9.43999 8.91003 9.45999C8.06003 9.72999 7.40003 10.41 7.14003 11.26V11.28C7.07003 11.5 7.04003 11.74 7.03003 11.98V12.05H12.44Z" fill="#433B6B"/>
<path d="M8.10999 13.84C8.10999 14.12 8.32999 14.34 8.60999 14.34C8.87999 14.34 9.10999 14.12 9.10999 13.85V13.44C9.10999 13.16 8.88999 12.94 8.60999 12.94C8.32999 12.94 8.10999 13.16 8.10999 13.44V13.84Z" fill="black"/>
<path d="M10.36 13.84C10.36 14.12 10.58 14.34 10.86 14.34C11.13 14.34 11.36 14.12 11.36 13.85V13.44C11.36 13.16 11.14 12.94 10.86 12.94C10.58 12.94 10.36 13.16 10.36 13.44V13.84Z" fill="black"/>
<path d="M21.14 14.34C20.86 14.34 20.64 14.12 20.64 13.84V13.44C20.64 13.16 20.86 12.94 21.14 12.94C21.42 12.94 21.64 13.16 21.64 13.44V13.85C21.64 14.12 21.42 14.34 21.14 14.34Z" fill="black"/>
<path d="M22.89 13.84C22.89 14.12 23.11 14.34 23.39 14.34C23.67 14.34 23.89 14.12 23.89 13.85V13.44C23.89 13.16 23.67 12.94 23.39 12.94C23.11 12.94 22.89 13.16 22.89 13.44V13.84Z" fill="black"/>
</svg>

<svg xmlns="http://www.w3.org/2000/svg" width="32" height="32" fill="none"><path fill="#F92F60" d="M22.83 13.77H21.7a5.16 5.16 0 0 0-5.16 5.16v7.76c0 .58.47 1.06 1.06 1.06l4.665.75 4.665-.75c.58 0 1.06-.47 1.06-1.06v-7.76a5.16 5.16 0 0 0-5.16-5.16Z"/><path fill="#00A6ED" d="M10.3 13.77H9.17a5.16 5.16 0 0 0-5.16 5.16v7.76c0 .58.47 1.06 1.06 1.06l4.665.75 4.665-.75c.58 0 1.06-.47 1.06-1.06v-7.76a5.16 5.16 0 0 0-5.16-5.16Z"/><path fill="#B76A1E" d="M29 27.75H3c-.55 0-1 .45-1 1s.45 1 1 1h26c.55 0 1-.45 1-1s-.45-1-1-1Z"/><path fill="#321B41" d="M22.53 12.05a1.82 1.82 0 0 1-.54 0h-.25v.02a1.81 1.81 0 1 1-1.528-1.788c.078-.092.163-.178.253-.258a1.81 1.81 0 0 1 3.59 0c.089.08.173.166.25.257a1.81 1.81 0 1 1-1.536 1.79l.001-.021h-.24Z"/><path fill="#FCD53F" d="M22.003 7.77a1.127 1.127 0 0 0-.481.244l-.282-.674c-.22-.53-.93-.61-1.28-.16a.742.742 0 0 0 .5 1.18l.751.088a1.127 1.127 0 0 0 .115 1.058 2.691 2.691 0 0 1 1.868 0 1.125 1.125 0 0 0 .114-1.059l.742-.087c.56-.07.84-.72.5-1.18-.35-.45-1.06-.37-1.28.16l-.28.668a1.126 1.126 0 0 0-.473-.239l.383-.659A.742.742 0 0 0 22.26 6c-.57 0-.93.62-.64 1.11l.383.66ZM22.74 23.53l2.59-2.65c1.24-1.27.34-3.41-1.44-3.41h-3.32c-1.78 0-2.68 2.14-1.44 3.41l2.59 2.65c.29.28.75.28 1.02 0ZM9.23 17.51h1c.24 0 .43.21.41.45l-.5 5.53a.412.412 0 0 1-.82 0l-.5-5.53c-.02-.24.17-.45.41-.45Z"/><path fill="#D3D3D3" d="M7.5 8.41a.5.5 0 0 1 .5-.5h3.594a.5.5 0 0 1 0 1H8a.5.5 0 0 1-.5-.5Z"/><path fill="#FFF3D7" d="M7.03 12.04c0-1.49 1.21-2.7 2.7-2.7 1.5 0 2.71 1.21 2.7 2.7v1.77c0 1.49-1.21 2.7-2.7 2.7-1.49 0-2.7-1.21-2.7-2.7v-1.77ZM22.25 16.51c-1.49 0-2.7-1.21-2.7-2.7h-.01v-1.76h5.41v1.76c0 1.49-1.21 2.7-2.7 2.7Z"/><path fill="#433B6B" d="M12.44 12.05v-.07a2.62 2.62 0 0 0-.11-.69v-.02c-.26-.85-.92-1.53-1.77-1.8-.07-.03-.13-.04-.19-.06V7.02c0-.23-.11-.43-.27-.56a.586.586 0 0 0-.73 0c-.17.13-.28.34-.28.56v2.39c-.06.02-.12.03-.18.05-.85.27-1.51.95-1.77 1.8v.02c-.07.22-.1.46-.11.7v.07h5.41Z"/><path fill="#000" d="M8.11 13.84c0 .28.22.5.5.5a.5.5 0 0 0 .5-.49v-.41c0-.28-.22-.5-.5-.5s-.5.22-.5.5v.4ZM10.36 13.84c0 .28.22.5.5.5a.5.5 0 0 0 .5-.49v-.41c0-.28-.22-.5-.5-.5s-.5.22-.5.5v.4ZM21.14 14.34c-.28 0-.5-.22-.5-.5v-.4c0-.28.22-.5.5-.5s.5.22.5.5v.41c0 .27-.22.49-.5.49ZM22.89 13.84c0 .28.22.5.5.5s.5-.22.5-.49v-.41c0-.28-.22-.5-.5-.5s-.5.22-.5.5v.4Z"/></svg>
